X: 179
T: 180. Als Jesus Christus in der Nacht
N: Derived from chor180.krn
C: Johann Sebastian Bach
%%abc-version 2.0
%%abcx-abcm2ps-target-version 5.9.1 (29 Sep 2008)
%%abc-creator hum2abc beta
%%abcx-conversion-date 2019/03/11 17:28:18
%%abc-edited-by Craig Stuart Sapp
%%humdrum-veritas 1875360458
%%humdrum-veritas-data 1705932337
%%
%%barnumbers 0
L: 1/4
M: C
%%staves [1 2 3 4]
V: 1 clef=treble
V: 2 clef=treble
V: 3 clef=treble-8
V: 4 clef=bass
K: C
[V:1] A [I:setbarnb 1]| 
[V:2] F | 
[V:3] d | 
[V:4] D, | 
[V:1] cA_BA | 
[V:2] G-G/F/- F/E/F- | 
[V:3] cc_Bc | 
[V:4] E,F,G,A, | 
[V:1] GG!fermata!FA | 
[V:2] F3/E/!fermata!CA- | 
[V:3] dc3//_B//!fermata!Ac | 
[V:4] _B,C!fermata!F,F,/E,/ | 
[V:1] Bcdc | 
[V:2] A/^G/A-A/G/A | 
[V:3] fede | 
[V:4] D,C,B,,A,, | 
[V:1] B2!fermata!AE | 
[V:2] A^G!fermata!E^C | 
[V:3] fe/d/!fermata!^cA | 
[V:4] D,E,!fermata!A,,A,, | 
[V:1] FF=GG | 
[V:2] DDD/B,/^C/D/ | 
[V:3] AAG_B | 
[V:4] D,,/D,=C,/ B,,/E,D,/ | 
[V:1] AA!fermata!FD | 
[V:2] E/D/E/^C/!fermata!DA,/=B,/ | 
[V:3] AA!fermata!AF | 
[V:4] ^C,/B,,/C,/A,,/!fermata!D,D, | 
[V:1] EFGF | 
[V:2] =CC^CD | 
[V:3] GA/F/ _B/G/A- | 
[V:4] =C,/_B,,/A,,E,,F,,/G,,/ | 
[V:1] E2!fermata!D |]  
[V:2] D^C!fermata!A, |]  
[V:3] A/E/A/G/!fermata!^F |]  
[V:4] A,,2!fermata!D, |]  



